Catalina-dark/actions/22/xml-node-delete.svg

<svg xmlns="http://www.w3.org/2000/svg" viewBox="0 0 22 22">
  <defs id="defs3051">
    <style type="text/css" id="current-color-scheme">
      .ColorScheme-Text {
        color:#f2f2f2;
      }
      .ColorScheme-Highlight {
        color:#3daee9;
      }
      </style>
  </defs>
 <path 
     style="fill:currentColor;fill-opacity:1;stroke:none" 
     d="M 12.208984 5.6074219 C 12.142955 5.6342176 12.090217 5.6863075 12.0625 5.7519531 L 7.8398438 15.740234 C 7.7820295 15.8769 7.8456794 16.033983 7.9824219 16.091797 L 8.6914062 16.390625 C 8.7248049 16.404829 8.7592966 16.412109 8.7949219 16.412109 C 8.8292419 16.412109 8.8640838 16.405707 8.8964844 16.392578 C 8.9625139 16.365782 9.0151749 16.313692 9.0429688 16.248047 L 13.265625 6.2597656 C 13.323362 6.1230999 13.259713 5.9660173 13.123047 5.9082031 L 12.416016 5.609375 C 12.350447 5.5815812 12.275091 5.580703 12.208984 5.6074219 z M 7.3125 7.4550781 C 7.2444455 7.4452601 7.1727078 7.4613662 7.1132812 7.5058594 L 3.1074219 10.501953 C 3.0396265 10.552627 3 10.632033 3 10.716797 C 3 10.80156 3.0396265 10.880967 3.1074219 10.931641 L 7.1132812 13.925781 C 7.1614982 13.961944 7.217466 13.980469 7.2734375 13.980469 C 7.3552834 13.980469 7.4355344 13.943606 7.4882812 13.873047 L 7.9492188 13.257812 C 7.9919076 13.200613 8.0101348 13.129153 8 13.058594 C 7.9897885 12.988034 7.9515777 12.923548 7.8945312 12.880859 L 5 10.716797 L 7.8945312 8.5527344 C 7.9515777 8.5100455 7.9897885 8.4455594 8 8.375 C 8.0101348 8.3044406 7.9919844 8.2329812 7.9492188 8.1757812 L 7.4882812 7.5605469 C 7.4437881 7.5011203 7.3805545 7.4648962 7.3125 7.4550781 z M 13.794922 7.4550781 C 13.726877 7.4648962 13.661642 7.5011587 13.617188 7.5605469 L 13.158203 8.1757812 C 13.115514 8.2329045 13.097287 8.3044406 13.107422 8.375 C 13.117633 8.4454827 13.155767 8.5100455 13.212891 8.5527344 L 16.107422 10.716797 L 13.212891 12.880859 C 13.155767 12.923548 13.117633 12.988111 13.107422 13.058594 C 13.097287 13.129153 13.115437 13.200689 13.158203 13.257812 L 13.617188 13.873047 C 13.670011 13.943606 13.752138 13.980469 13.833984 13.980469 C 13.889956 13.980469 13.945847 13.961867 13.994141 13.925781 L 17.998047 10.931641 C 18.065842 10.880967 18.105469 10.80156 18.105469 10.716797 C 18.105469 10.632033 18.065842 10.552627 17.998047 10.501953 L 13.994141 7.5058594 C 13.934714 7.4614046 13.862967 7.4452601 13.794922 7.4550781 z "
     class="ColorScheme-Text"
     />
 <path 
     style="fill:#da4453;fill-opacity:1"
                 d="M 17.308594 13.021484 C 17.001754 13.021484 16.71809 13.096817 16.458984 13.248047 C 16.199852 13.39925 15.99498 13.604149 15.84375 13.863281 C 15.692493 14.122414 15.617187 14.406078 15.617188 14.712891 C 15.617188 15.01973 15.692547 15.301387 15.84375 15.560547 C 15.99498 15.819625 16.199852 16.024551 16.458984 16.175781 C 16.718117 16.327012 17.001754 16.402344 17.308594 16.402344 C 17.615433 16.402344 17.899098 16.327012 18.158203 16.175781 C 18.417308 16.024578 18.622207 15.819652 18.773438 15.560547 C 18.924641 15.301415 19 15.019703 19 14.712891 C 19 14.406051 18.924614 14.122387 18.773438 13.863281 C 18.622207 13.604176 18.417308 13.399277 18.158203 13.248047 C 17.899044 13.096817 17.61546 13.021484 17.308594 13.021484 z M 16.810547 13.873047 C 16.848713 13.873047 16.882262 13.886168 16.910156 13.914062 L 17.308594 14.3125 L 17.707031 13.914062 C 17.734872 13.886168 17.768475 13.873047 17.806641 13.873047 C 17.846293 13.873047 17.880309 13.886168 17.908203 13.914062 L 18.105469 14.113281 C 18.133363 14.141176 18.148437 14.175191 18.148438 14.214844 C 18.148438 14.253009 18.133363 14.284633 18.105469 14.3125 L 17.707031 14.712891 L 18.105469 15.111328 C 18.133363 15.139196 18.148437 15.170819 18.148438 15.208984 C 18.148438 15.24861 18.133363 15.282679 18.105469 15.310547 L 17.908203 15.509766 C 17.880309 15.53766 17.846293 15.550781 17.806641 15.550781 C 17.768475 15.550781 17.734872 15.53766 17.707031 15.509766 L 17.308594 15.111328 L 16.910156 15.509766 C 16.882262 15.53766 16.848713 15.550781 16.810547 15.550781 C 16.770895 15.550781 16.736879 15.53766 16.708984 15.509766 L 16.511719 15.310547 C 16.483824 15.282679 16.46875 15.24861 16.46875 15.208984 C 16.46875 15.170819 16.483824 15.139196 16.511719 15.111328 L 16.910156 14.712891 L 16.511719 14.3125 C 16.483824 14.284633 16.46875 14.253009 16.46875 14.214844 C 16.46875 14.175191 16.483824 14.141176 16.511719 14.113281 L 16.708984 13.914062 C 16.736879 13.886168 16.770895 13.873047 16.810547 13.873047 z "
     />
</svg>

<svg viewBox="0 0 22 22" xmlns="http://www.w3.org/2000/svg">
<defs>
<style id="current-color-scheme" type="text/css">.ColorScheme-Text {
        color:#dedede;
      }
      .ColorScheme-Highlight {
        color:#3daee9;
      }</style>
</defs>
<path class="ColorScheme-Text" d="m12.209 5.6074c-0.066029 0.026796-0.11877 0.078886-0.14648 0.14453l-4.2227 9.9883c-0.057814 0.13667 0.0058356 0.29375 0.14258 0.35156l0.70898 0.29883c0.033399 0.014204 0.06789 0.021484 0.10352 0.021484 0.03432 0 0.069162-0.006402 0.10156-0.019531 0.06603-0.026796 0.11869-0.078886 0.14648-0.14453l4.2227-9.9883c0.057737-0.13667-0.005912-0.29375-0.14258-0.35156l-0.70703-0.29883c-0.065569-0.027794-0.14092-0.028672-0.20703-0.0019531zm-4.8965 1.8477c-0.068054-0.009818-0.13979 0.0062881-0.19922 0.050781l-4.0059 2.9961c-0.067795 0.050674-0.10742 0.13008-0.10742 0.21484 0 0.084763 0.039626 0.16417 0.10742 0.21484l4.0059 2.9941c0.048217 0.036163 0.10418 0.054688 0.16016 0.054688 0.081846 0 0.1621-0.036863 0.21484-0.10742l0.46094-0.61524c0.042689-0.057199 0.060916-0.12866 0.050781-0.19922-0.010212-0.07056-0.048422-0.13505-0.10547-0.17774l-2.8945-2.1641 2.8945-2.1641c0.057046-0.042689 0.095257-0.10718 0.10547-0.17773 0.010135-0.070559-0.0080156-0.14202-0.050781-0.19922l-0.46094-0.61523c-0.044493-0.059427-0.10773-0.095651-0.17578-0.10547zm6.4824 0c-0.068045 0.0098181-0.13328 0.046081-0.17773 0.10547l-0.45898 0.61523c-0.042689 0.057123-0.060916 0.12866-0.050781 0.19922 0.010211 0.070483 0.048345 0.13505 0.10547 0.17773l2.8945 2.1641-2.8945 2.1641c-0.057124 0.042689-0.095258 0.10725-0.10547 0.17774-0.010135 0.070559 0.008015 0.1421 0.050781 0.19922l0.45898 0.61524c0.052823 0.070559 0.13495 0.10742 0.2168 0.10742 0.055972 0 0.11186-0.018602 0.16016-0.054688l4.0039-2.9941c0.067795-0.050674 0.10742-0.13008 0.10742-0.21484 0-0.084764-0.039627-0.16417-0.10742-0.21484l-4.0039-2.9961c-0.059427-0.044455-0.13117-0.060599-0.19922-0.050781z" fill="currentColor"/>
<path d="m17.309 13.021c-0.30684 0-0.5905 0.075333-0.84961 0.22656-0.25913 0.1512-0.464 0.3561-0.61523 0.61523-0.15126 0.25913-0.22656 0.5428-0.22656 0.84961 0 0.30684 0.075359 0.5885 0.22656 0.84766 0.15123 0.25908 0.3561 0.464 0.61523 0.61523 0.25913 0.15123 0.54277 0.22656 0.84961 0.22656 0.30684 0 0.5905-0.075332 0.84961-0.22656 0.2591-0.1512 0.464-0.35613 0.61524-0.61523 0.1512-0.25913 0.22656-0.54084 0.22656-0.84766 0-0.30684-0.075386-0.5905-0.22656-0.84961-0.15123-0.2591-0.35613-0.464-0.61524-0.61523-0.25916-0.15123-0.54274-0.22656-0.84961-0.22656zm-0.49805 0.85156c0.038166 0 0.071715 0.013121 0.099609 0.041015l0.39844 0.39844 0.39844-0.39844c0.027841-0.027894 0.061444-0.041015 0.09961-0.041015 0.039652 0 0.073668 0.013121 0.10156 0.041015l0.19727 0.19922c0.027894 0.027895 0.042968 0.06191 0.042969 0.10156 0 0.038165-0.015075 0.069789-0.042969 0.097656l-0.39844 0.40039 0.39844 0.39844c0.027894 0.027868 0.042968 0.059491 0.042969 0.097656 0 0.039626-0.015075 0.073695-0.042969 0.10156l-0.19727 0.19922c-0.027894 0.027894-0.06191 0.041015-0.10156 0.041015-0.038166 0-0.071769-0.013121-0.09961-0.041015l-0.39844-0.39844-0.39844 0.39844c-0.027894 0.027894-0.061443 0.041015-0.099609 0.041015-0.039652 0-0.073668-0.013121-0.10156-0.041015l-0.19726-0.19922c-0.027895-0.027868-0.042969-0.061937-0.042969-0.10156 0-0.038165 0.015074-0.069788 0.042969-0.097656l0.39844-0.39844-0.39844-0.40039c-0.027895-0.027867-0.042969-0.059491-0.042969-0.097656 0-0.039653 0.015074-0.073668 0.042969-0.10156l0.19726-0.19922c0.027895-0.027894 0.061911-0.041015 0.10156-0.041015z" fill="#da4453"/>
</svg>
